material/.icons/material/table-network.svg

<svg xmlns="http://www.w3.org/2000/svg" viewBox="0 0 24 24"><path d="M15 20c0-.55-.45-1-1-1h-1v-2h6c1.11 0 2-.89 2-2V3a2 2 0 00-2-2H5c-1.1 0-2 .9-2 2v12a2 2 0 002 2h6v2h-1c-.55 0-1 .45-1 1H2v2h7c0 .55.45 1 1 1h4c.55 0 1-.45 1-1h7v-2h-7M13 5h6v4h-6V5m0 6h6v4h-6v-4M5 5h6v4H5V5m0 10v-4h6v4H5z"/></svg>

<?xml version="1.0" encoding="UTF-8"?><!DOCTYPE svg PUBLIC "-//W3C//DTD SVG 1.1//EN" "http://www.w3.org/Graphics/SVG/1.1/DTD/svg11.dtd"><svg xmlns="http://www.w3.org/2000/svg" xmlns:xlink="http://www.w3.org/1999/xlink" version="1.1" id="mdi-table-network" width="24" height="24" viewBox="0 0 24 24"><path d="M15 20C15 19.45 14.55 19 14 19H13V17H19C20.11 17 21 16.11 21 15V3C21 1.9 20.11 1 19 1H5C3.9 1 3 1.9 3 3V15C3 16.11 3.9 17 5 17H11V19H10C9.45 19 9 19.45 9 20H2V22H9C9 22.55 9.45 23 10 23H14C14.55 23 15 22.55 15 22H22V20H15M13 5H19V9H13V5M13 11H19V15H13V11M5 5H11V9H5V5M5 15V11H11V15H5Z" /></svg>
